build/img/icon-1.svg

<svg width="14" height="14" viewBox="0 0 14 14" fill="none" xmlns="http://www.w3.org/2000/svg">
<path fill-rule="evenodd" clip-rule="evenodd" d="M7.00021 0.600098C5.26206 0.600098 5.04392 0.607698 4.36125 0.638765C3.67991 0.669965 3.21484 0.777833 2.8079 0.936101C2.38696 1.09957 2.02989 1.31824 1.67415 1.67411C1.31815 2.02985 1.09948 2.38692 0.93548 2.80772C0.776811 3.21479 0.66881 3.68 0.638143 4.36107C0.607609 5.04374 0.599609 5.26201 0.599609 7.00016C0.599609 8.73831 0.607343 8.95578 0.638276 9.63846C0.66961 10.3198 0.777478 10.7849 0.935613 11.1918C1.09921 11.6127 1.31788 11.9698 1.67375 12.3256C2.02936 12.6816 2.38643 12.9008 2.8071 13.0642C3.2143 13.2225 3.67951 13.3304 4.36072 13.3616C5.04339 13.3926 5.26139 13.4002 6.99941 13.4002C8.73769 13.4002 8.95516 13.3926 9.63784 13.3616C10.3192 13.3304 10.7848 13.2225 11.192 13.0642C11.6128 12.9008 11.9693 12.6816 12.3249 12.3256C12.6809 11.9698 12.8996 11.6127 13.0636 11.1919C13.2209 10.7849 13.3289 10.3197 13.3609 9.63859C13.3916 8.95592 13.3996 8.73831 13.3996 7.00016C13.3996 5.26201 13.3916 5.04388 13.3609 4.3612C13.3289 3.67986 13.2209 3.21479 13.0636 2.80785C12.8996 2.38692 12.6809 2.02985 12.3249 1.67411C11.9689 1.31811 11.6129 1.09944 11.1916 0.936101C10.7836 0.777833 10.3182 0.669965 9.6369 0.638765C8.95423 0.607698 8.73689 0.600098 6.99821 0.600098H7.00021ZM6.42604 1.75343C6.59644 1.75316 6.78658 1.75343 7.00018 1.75343C8.709 1.75343 8.91154 1.75956 9.58634 1.79023C10.2103 1.81876 10.549 1.92303 10.7746 2.01063C11.0733 2.12663 11.2862 2.2653 11.5101 2.4893C11.7341 2.7133 11.8728 2.92664 11.989 3.22531C12.0766 3.45064 12.181 3.78931 12.2094 4.41332C12.2401 5.08799 12.2468 5.29066 12.2468 6.99868C12.2468 8.7067 12.2401 8.90937 12.2094 9.58404C12.1809 10.208 12.0766 10.5467 11.989 10.7721C11.873 11.0707 11.7341 11.2834 11.5101 11.5073C11.2861 11.7313 11.0734 11.8699 10.7746 11.9859C10.5493 12.0739 10.2103 12.1779 9.58634 12.2065C8.91167 12.2371 8.709 12.2438 7.00018 12.2438C5.29123 12.2438 5.0887 12.2371 4.41402 12.2065C3.79002 12.1777 3.45134 12.0734 3.22561 11.9858C2.92694 11.8698 2.7136 11.7311 2.4896 11.5071C2.2656 11.2831 2.12693 11.0703 2.01066 10.7715C1.92306 10.5462 1.81866 10.2075 1.79026 9.58351C1.75959 8.90883 1.75346 8.70616 1.75346 6.99708C1.75346 5.28799 1.75959 5.08639 1.79026 4.41172C1.81879 3.78771 1.92306 3.44904 2.01066 3.22344C2.12666 2.92477 2.2656 2.71143 2.4896 2.48743C2.7136 2.26343 2.92694 2.12476 3.22561 2.00849C3.45121 1.92049 3.79002 1.81649 4.41402 1.78783C5.00443 1.76116 5.23323 1.75316 6.42604 1.75182V1.75343ZM10.4165 2.81611C9.99248 2.81611 9.64848 3.15971 9.64848 3.58385C9.64848 4.00785 9.99248 4.35185 10.4165 4.35185C10.8405 4.35185 11.1845 4.00785 11.1845 3.58385C11.1845 3.15984 10.8405 2.81611 10.4165 2.81611ZM7.00022 3.71345C5.18513 3.71345 3.71352 5.18506 3.71352 7.00015C3.71352 8.81523 5.18513 10.2862 7.00022 10.2862C8.81531 10.2862 10.2864 8.81523 10.2864 7.00015C10.2864 5.18506 8.81531 3.71345 7.00022 3.71345ZM7.0002 4.86679C8.17834 4.86679 9.13355 5.82187 9.13355 7.00015C9.13355 8.17829 8.17834 9.1335 7.0002 9.1335C5.82192 9.1335 4.86684 8.17829 4.86684 7.00015C4.86684 5.82187 5.82192 4.86679 7.0002 4.86679Z" fill="white"/>
</svg>

<svg width="14" height="14" fill="none" xmlns="http://www.w3.org/2000/svg"><path fill-rule="evenodd" clip-rule="evenodd" d="M7 .6C5.262.6 5.044.608 4.361.64 3.68.67 3.215.778 2.808.936a3.142 3.142 0 00-1.134.738 3.142 3.142 0 00-.739 1.134C.777 3.215.67 3.68.638 4.36.608 5.044.6 5.262.6 7.001c0 1.737.007 1.955.038 2.637.032.682.14 1.147.298 1.554.163.42.382.778.738 1.134.355.356.712.575 1.133.738.407.159.873.266 1.554.298.682.03.9.038 2.638.038 1.739 0 1.956-.007 2.639-.038.681-.032 1.147-.14 1.554-.298a3.13 3.13 0 001.133-.738c.356-.356.575-.713.739-1.134.157-.407.265-.872.297-1.553.03-.683.039-.9.039-2.639 0-1.738-.008-1.956-.04-2.639-.031-.681-.14-1.146-.296-1.553a3.141 3.141 0 00-.74-1.134 3.128 3.128 0 00-1.132-.738C10.784.778 10.318.67 9.637.64 8.954.608 8.737.6 6.998.6H7zm-.574 1.153H7c1.709 0 1.912.007 2.586.037.624.029.963.133 1.189.22.298.117.511.255.735.48.224.223.363.437.479.735.088.226.192.564.22 1.188.031.675.038.878.038 2.586 0 1.708-.007 1.91-.038 2.585-.028.624-.132.963-.22 1.188a1.98 1.98 0 01-.479.735 1.98 1.98 0 01-.735.479c-.226.088-.565.192-1.189.22-.674.031-.877.038-2.586.038-1.709 0-1.911-.007-2.586-.037-.624-.03-.963-.134-1.188-.221a1.982 1.982 0 01-.736-.479 1.984 1.984 0 01-.48-.736c-.087-.225-.191-.564-.22-1.187-.03-.675-.037-.878-.037-2.587s.007-1.91.037-2.585c.029-.624.133-.963.22-1.189.117-.298.256-.512.48-.736.224-.224.437-.362.736-.479.225-.088.564-.192 1.188-.22.59-.027.82-.035 2.012-.036v.001zm3.99 1.063a.768.768 0 100 1.536.768.768 0 000-1.536zM7 3.713a3.287 3.287 0 100 6.574 3.287 3.287 0 000-6.574zm0 1.154a2.133 2.133 0 110 4.267 2.133 2.133 0 010-4.267z" fill="#fff"/></svg>
